dist/img/illustration/city-tower.svg

<svg data-name="Layer 1" xmlns="http://www.w3.org/2000/svg" width="54" height="242.5" viewBox="0 0 54 242.5"><path fill="#ee2a7b" stroke="#a02373" stroke-miterlimit="10" stroke-width=".845" d="M15.64 233.64V26.61l13.77-13.7 13.78 13.7v207.03"/><path fill="#fce9f1" stroke="#a02373" stroke-linejoin="bevel" stroke-width=".845" d="M15.64 233.64V26.61l13.77-13.7.02 13.7v207.03"/><path fill="#e9b7d5" stroke="#a02373" stroke-miterlimit="10" stroke-width=".845" d="M23.66 233.64V30.02l5.75-5.72 5.75 5.72v203.62"/><path fill="none" stroke="#a02373" stroke-miterlimit="10" stroke-width=".845" d="M35.16 30.02l8.03-3.41M29.41 24.3V12.91m-5.75 17.11l-8.02-3.41"/><path d="M30.26 229.76h-1.69v-5.07h1.69zm0-10.14h-1.69v-5.07h1.69zm0-10.14h-1.69v-5.07h1.69zm0-10.13h-1.69v-5.07h1.69zm0-10.14h-1.69v-5.07h1.69zm0-10.14h-1.69V174h1.69zm0-10.14h-1.69v-5.07h1.69zm0-10.14h-1.69v-5.07h1.69zm0-10.14h-1.69v-5.07h1.69zm0-10.14h-1.69v-5.07h1.69zm0-10.14h-1.69v-5.06h1.69zm0-10.13h-1.69v-5.07h1.69zm0-10.14h-1.69V103h1.69zm0-10.14h-1.69v-5.07h1.69zm0-10.14h-1.69v-5.07h1.69zm0-10.14h-1.69v-5.07h1.69zm0-10.14h-1.69v-5.07h1.69zm0-10.14h-1.69v-5.06h1.69zm0-10.13h-1.69V42.2h1.69z" fill="#a02373"/><path fill="#a02373" opacity=".5" d="M15.4 105.91h28.08v3.74H15.4zm0 72.39h28.08v3.74H15.4z"/><path fill="#a02373" opacity=".4" d="M15.64 233.64V26.61l13.77-13.7 13.78 13.7v207.03"/></svg>

<svg id="Layer_1" data-name="Layer 1" xmlns="http://www.w3.org/2000/svg" width="54" height="242.5" viewBox="0 0 54 242.5"><title>Artboard 11</title><polyline points="15.64 233.64 15.64 26.61 29.41 12.91 43.19 26.61 43.19 233.64" style="fill:#ee2a7b;stroke:#a02373;stroke-miterlimit:10;stroke-width:0.844885123684936px"/><polyline points="15.64 233.64 15.64 26.61 29.41 12.91 29.43 26.61 29.43 233.64" style="fill:#fce9f1;stroke:#a02373;stroke-linejoin:bevel;stroke-width:0.844885123684936px"/><polyline points="23.66 233.64 23.66 30.02 29.41 24.3 35.16 30.02 35.16 233.64" style="fill:#e9b7d5;stroke:#a02373;stroke-miterlimit:10;stroke-width:0.844885123684936px"/><line x1="35.16" y1="30.02" x2="43.19" y2="26.61" style="fill:none;stroke:#a02373;stroke-miterlimit:10;stroke-width:0.844885123684936px"/><line x1="29.41" y1="24.3" x2="29.41" y2="12.91" style="fill:none;stroke:#a02373;stroke-miterlimit:10;stroke-width:0.844885123684936px"/><line x1="23.66" y1="30.02" x2="15.64" y2="26.61" style="fill:none;stroke:#a02373;stroke-miterlimit:10;stroke-width:0.844885123684936px"/><path d="M30.26,229.76H28.57v-5.07h1.69Zm0-10.14H28.57v-5.07h1.69Zm0-10.14H28.57v-5.07h1.69Zm0-10.13H28.57v-5.07h1.69Zm0-10.14H28.57v-5.07h1.69Zm0-10.14H28.57V174h1.69Zm0-10.14H28.57v-5.07h1.69Zm0-10.14H28.57v-5.07h1.69Zm0-10.14H28.57v-5.07h1.69Zm0-10.14H28.57v-5.07h1.69Zm0-10.14H28.57v-5.06h1.69Zm0-10.13H28.57v-5.07h1.69Zm0-10.14H28.57V103h1.69Zm0-10.14H28.57V92.89h1.69Zm0-10.14H28.57V82.75h1.69Zm0-10.14H28.57V72.61h1.69Zm0-10.14H28.57V62.47h1.69Zm0-10.14H28.57V52.34h1.69Zm0-10.13H28.57V42.2h1.69Z" style="fill:#a02373"/><rect x="15.4" y="105.91" width="28.08" height="3.74" style="fill:#a02373;opacity:0.5"/><rect x="15.4" y="178.3" width="28.08" height="3.74" style="fill:#a02373;opacity:0.5"/><polyline points="15.64 233.64 15.64 26.61 29.41 12.91 43.19 26.61 43.19 233.64" style="fill:#a02373;opacity:0.4"/></svg>
